report_00007_2020-12-11T15:55:29.892Z/first-cpu-idle/comparison/line/3_vs_4.svg

<svg width="640" height="500" xmlns="http://www.w3.org/2000/svg" xmlns:xlink="http://www.w3.org/1999/xlink"><path fill="#fff" d="M0 0h640v500H0z"/><defs><path id="d" stroke-width=".222" stroke="currentColor" d="M-1-1h2v2h-2z"/><path id="b" stroke-width=".222" stroke="currentColor" d="M0-1.33l-1.33 2h2.66z"/><path id="f" stroke-width=".222" stroke="currentColor" d="M0 1.33L1.265.411.782-1.067l-1.564-.009-.483 1.487z"/><use xlink:href="#b" id="c" stroke="currentColor" transform="rotate(180)"/><use xlink:href="#d" id="e" stroke="currentColor" transform="rotate(45)"/><circle id="a" stroke-width=".222" stroke="currentColor" cx="0" cy="0" r="1"/></defs><g fill="none" color="#000" stroke="currentColor"><path stroke="#000" d="M62.2 385.6h9m543.8 0h-9"/><text transform="translate(53.9 389.5)" stroke="none" fill="#000" font-family="Arial" font-size="12" text-anchor="end"><tspan>1850</tspan></text></g><g fill="none" color="#000" stroke="currentColor"><path stroke="#000" d="M62.2 335h9m543.8 0h-9"/><text transform="translate(53.9 338.9)" stroke="none" fill="#000" font-family="Arial" font-size="12" text-anchor="end"><tspan>1900</tspan></text></g><g fill="none" color="#000" stroke="currentColor"><path stroke="#000" d="M62.2 284.5h9m543.8 0h-9"/><text transform="translate(53.9 288.4)" stroke="none" fill="#000" font-family="Arial" font-size="12" text-anchor="end"><tspan>1950</tspan></text></g><g fill="none" color="#000" stroke="currentColor"><path stroke="#000" d="M62.2 233.9h9m543.8 0h-9"/><text transform="translate(53.9 237.8)" stroke="none" fill="#000" font-family="Arial" font-size="12" text-anchor="end"><tspan>2000</tspan></text></g><g fill="none" color="#000" stroke="currentColor"><path stroke="#000" d="M62.2 183.3h9m543.8 0h-9"/><text transform="translate(53.9 187.2)" stroke="none" fill="#000" font-family="Arial" font-size="12" text-anchor="end"><tspan>2050</tspan></text></g><g fill="none" color="#000" stroke="currentColor"><path stroke="#000" d="M62.2 132.8h9m543.8 0h-9"/><text transform="translate(53.9 136.7)" stroke="none" fill="#000" font-family="Arial" font-size="12" text-anchor="end"><tspan>2100</tspan></text></g><g fill="none" color="#000" stroke="currentColor"><path stroke="#000" d="M62.2 82.2h9m543.8 0h-9"/><text transform="translate(53.9 86.1)" stroke="none" fill="#000" font-family="Arial" font-size="12" text-anchor="end"><tspan>2150</tspan></text></g><g fill="none" color="#000" stroke="currentColor"><path stroke="#000" d="M62.2 31.6h9m543.8 0h-9"/><text transform="translate(53.9 35.5)" stroke="none" fill="#000" font-family="Arial" font-size="12" text-anchor="end"><tspan>2200</tspan></text></g><g fill="none" color="#000" stroke="currentColor"><path stroke="#000" d="M62.2 428v-9m0-400.9v9"/><text transform="translate(62.2 449.9)" stroke="none" fill="#000" font-family="Arial" font-size="12" text-anchor="middle"><tspan>0</tspan></text></g><g fill="none" color="#000" stroke="currentColor"><path stroke="#000" d="M118 428v-9m0-400.9v9"/><text transform="translate(118 449.9)" stroke="none" fill="#000" font-family="Arial" font-size="12" text-anchor="middle"><tspan>10</tspan></text></g><g fill="none" color="#000" stroke="currentColor"><path stroke="#000" d="M173.9 428v-9m0-400.9v9"/><text transform="translate(173.9 449.9)" stroke="none" fill="#000" font-family="Arial" font-size="12" text-anchor="middle"><tspan>20</tspan></text></g><g fill="none" color="#000" stroke="currentColor"><path stroke="#000" d="M229.7 428v-9m0-400.9v9"/><text transform="translate(229.7 449.9)" stroke="none" fill="#000" font-family="Arial" font-size="12" text-anchor="middle"><tspan>30</tspan></text></g><g fill="none" color="#000" stroke="currentColor"><path stroke="#000" d="M285.6 428v-9m0-400.9v9"/><text transform="translate(285.6 449.9)" stroke="none" fill="#000" font-family="Arial" font-size="12" text-anchor="middle"><tspan>40</tspan></text></g><g fill="none" color="#000" stroke="currentColor"><path stroke="#000" d="M341.4 428v-9m0-400.9v9"/><text transform="translate(341.4 449.9)" stroke="none" fill="#000" font-family="Arial" font-size="12" text-anchor="middle"><tspan>50</tspan></text></g><g fill="none" color="#000" stroke="currentColor"><path stroke="#000" d="M397.2 428v-9m0-400.9v9"/><text transform="translate(397.2 449.9)" stroke="none" fill="#000" font-family="Arial" font-size="12" text-anchor="middle"><tspan>60</tspan></text></g><g fill="none" color="#000" stroke="currentColor"><path stroke="#000" d="M453.1 428v-9m0-400.9v9"/><text transform="translate(453.1 449.9)" stroke="none" fill="#000" font-family="Arial" font-size="12" text-anchor="middle"><tspan>70</tspan></text></g><g fill="none" color="#000" stroke="currentColor"><path stroke="#000" d="M508.9 428v-9m0-400.9v9"/><text transform="translate(508.9 449.9)" stroke="none" fill="#000" font-family="Arial" font-size="12" text-anchor="middle"><tspan>80</tspan></text></g><g fill="none" color="#000" stroke="currentColor"><path stroke="#000" d="M564.7 428v-9m0-400.9v9"/><text transform="translate(564.7 449.9)" stroke="none" fill="#000" font-family="Arial" font-size="12" text-anchor="middle"><tspan>90</tspan></text></g><path stroke="#000" d="M62.2 18.1V428H615V18.1H62.2z" fill="none" color="#000"/><text transform="translate(279.8 467.9)" stroke="none" fill="#000" font-family="Arial" font-size="12" text-anchor="end" color="#000"><tspan>pages+cached+nointeractive</tspan></text><path stroke="#9400D3" d="M288.1 464h42.2M62.2 259.6l5.6-228.7 5.6 231.6 5.6-1.1 5.5-.9 5.6.2 5.6-3.7 5.6-224.8 5.6-4.2 5.6 75.7 5.5-74.5 5.6 233 5.6-1.3 5.6-1 5.6 2.3 5.6-2.4 5.5 4.3 5.6-237.8 5.6 2.6 5.6 232.4L173.9 29l5.6 231.7 5.5.4 5.6-.7 5.6 2.4 5.6-3.6 5.6-228.6 5.6-2.5 5.5 233.1 5.6-232.5 5.6 72.8 5.6 5.4 5.6-.7 5.6-74 5.6-3 5.5 75.9 5.6 155.6 5.6.2 5.6-155.3 5.6-75.5 5.6 230.8 5.5-233.8 5.6 3.1 5.6 229.1 5.6 1.9 5.6.7 5.6-156.8 5.5-75.9 5.6 233.1 5.6-233.9 5.6 1.5 5.6 231.5 5.6.8 5.5-157.3 5.6.4 5.6 1.8 5.6-78.9 5.6-1 5.6 7.1 5.5-4.4 5.6-3.9 5.6 2.2 5.6 235.7L414 28.2l5.6-.1 5.5 1.9 5.6 230.9 5.6-230.2 5.6-3.3 5.6 234.2 5.6-229.5 5.6-2.4 5.5 75.7 5.6-75.1 5.6-2.5 5.6 2.5 5.6-1.7 5.6-1.5 5.5 1.4 5.6.3 5.6 236.5 5.6-236.8 5.6-2.1 5.6 236.9 5.5 4 5.6-5.6 5.6-156.5L548 27l5.6 3.3 5.6 77.2 5.5-78.8 5.6-2.7 5.6 233.8 5.6-228.9 5.6.5 5.6.5 5.5-1 5.6 73.9 5.6 157.6 5.6-235" fill="none" color="#000"/><text transform="translate(279.8 485.9)" stroke="none" fill="#000" font-family="Arial" font-size="12" text-anchor="end" color="#000"><tspan>pages+cached+noadtech</tspan></text><path stroke="#009E73" d="M288.1 482h42.2M62.2 189.5l5.6 225 5.6.3 5.6 3.8 5.5-5.2 5.6-235 5.6 9.3 5.6 231.1 5.6-2 5.6-232.8 5.5 230.9 5.6-231.8 5.6 229.3 5.6-229.8 5.6.2 5.6-2.5 5.5 231.2 5.6-227.2 5.6 231.2 5.6-237.2 5.6 240.8 5.6-159.3 5.5-78.4 5.6 7.4 5.6 226 5.6-233.4 5.6 75.9 5.6 157.5 5.5 2.5 5.6-235.3 5.6 8.8 5.6 228.5 5.6.8 5.6-235.9 5.6 235.3 5.5-235 5.6-5.8 5.6 239.7 5.6-232.8 5.6-1.9 5.6 2.1 5.5 230.3 5.6-231.8 5.6 73.9 5.6-75.2 5.6 232.6 5.6-233.9 5.5 232.8 5.6 2.8 5.6-232.7 5.6 228.9 5.6-231 5.6 75 5.5 158.3 5.6 2 5.6-237.7 5.6 234.9 5.6-155.5 5.6.8 5.5 150.1 5.6 6.9 5.6-160.2 5.6-70.5 5.6 228 5.6.1 5.5-236.4 5.6 3.9 5.6 237.2 5.6-1.2 5.6-157.6 5.6-70.9 5.6 228.6 5.5-234 5.6-2.9 5.6 234.5 5.6-157.7 5.6-76.7 5.6 235.5 5.5-232.9 5.6-.3 5.6-1.3 5.6 1.3 5.6-.1 5.6 3.6 5.5-2.8 5.6 73.4 5.6 157.8L548 181l5.6 1.6 5.6 82.2 5.5-83.1 5.6 232 5.6-229.6 5.6 232.4 5.6-156.6 5.6 150 5.5-222.7 5.6 228 5.6-232.5 5.6-1.1" fill="none" color="#000"/><text transform="translate(554.4 467.9)" stroke="none" fill="#000" font-family="Arial" font-size="12" text-anchor="end" color="#000"><tspan>score p10=3572</tspan></text><path stroke="#56B4E9" d="M562.7 464h42.2" fill="none" color="#000"/><g><text transform="translate(554.4 485.9)" stroke="none" fill="#000" font-family="Arial" font-size="12" text-anchor="end" color="#000"><tspan>score median=6500</tspan></text><path stroke="#E69F00" d="M562.7 482h42.2" fill="none" color="#000"/></g><g fill="none" color="#000" stroke="currentColor"><path stroke="#000" d="M62.2 18.1V428H615V18.1H62.2z"/></g></svg>

<?xml version="1.0" encoding="utf-8"  standalone="no"?>
<svg 
 width="640" height="500"
 viewBox="0 0 640 500"
 xmlns="http://www.w3.org/2000/svg"
 xmlns:xlink="http://www.w3.org/1999/xlink"
>

<title>Gnuplot</title>
<desc>Produced by GNUPLOT 5.4 patchlevel 0 </desc>

<g id="gnuplot_canvas">

<rect x="0" y="0" width="640" height="500" fill="#ffffff"/>
<defs>

	<circle id='gpDot' r='0.5' stroke-width='0.5' stroke='currentColor'/>
	<path id='gpPt0' stroke-width='0.222' stroke='currentColor' d='M-1,0 h2 M0,-1 v2'/>
	<path id='gpPt1' stroke-width='0.222' stroke='currentColor' d='M-1,-1 L1,1 M1,-1 L-1,1'/>
	<path id='gpPt2' stroke-width='0.222' stroke='currentColor' d='M-1,0 L1,0 M0,-1 L0,1 M-1,-1 L1,1 M-1,1 L1,-1'/>
	<rect id='gpPt3' stroke-width='0.222' stroke='currentColor' x='-1' y='-1' width='2' height='2'/>
	<rect id='gpPt4' stroke-width='0.222' stroke='currentColor' fill='currentColor' x='-1' y='-1' width='2' height='2'/>
	<circle id='gpPt5' stroke-width='0.222' stroke='currentColor' cx='0' cy='0' r='1'/>
	<use xlink:href='#gpPt5' id='gpPt6' fill='currentColor' stroke='none'/>
	<path id='gpPt7' stroke-width='0.222' stroke='currentColor' d='M0,-1.33 L-1.33,0.67 L1.33,0.67 z'/>
	<use xlink:href='#gpPt7' id='gpPt8' fill='currentColor' stroke='none'/>
	<use xlink:href='#gpPt7' id='gpPt9' stroke='currentColor' transform='rotate(180)'/>
	<use xlink:href='#gpPt9' id='gpPt10' fill='currentColor' stroke='none'/>
	<use xlink:href='#gpPt3' id='gpPt11' stroke='currentColor' transform='rotate(45)'/>
	<use xlink:href='#gpPt11' id='gpPt12' fill='currentColor' stroke='none'/>
	<path id='gpPt13' stroke-width='0.222' stroke='currentColor' d='M0,1.330 L1.265,0.411 L0.782,-1.067 L-0.782,-1.076 L-1.265,0.411 z'/>
	<use xlink:href='#gpPt13' id='gpPt14' fill='currentColor' stroke='none'/>
	<filter id='textbox' filterUnits='objectBoundingBox' x='0' y='0' height='1' width='1'>
	  <feFlood flood-color='#FFFFFF' flood-opacity='1' result='bgnd'/>
	  <feComposite in='SourceGraphic' in2='bgnd' operator='atop'/>
	</filter>
	<filter id='greybox' filterUnits='objectBoundingBox' x='0' y='0' height='1' width='1'>
	  <feFlood flood-color='lightgrey' flood-opacity='1' result='grey'/>
	  <feComposite in='SourceGraphic' in2='grey' operator='atop'/>
	</filter>
</defs>
<g fill="none" color="#FFFFFF" stroke="black" stroke-width="1.00" stroke-linecap="butt" stroke-linejoin="miter">
</g>
<g fill="none" color="black" stroke="currentColor" stroke-width="1.00" stroke-linecap="butt" stroke-linejoin="miter">
	<path stroke='black'  d='M62.2,385.6 L71.2,385.6 M615.0,385.6 L606.0,385.6  '/>	<g transform="translate(53.9,389.5)" stroke="none" fill="black" font-family="Arial" font-size="12.00"  text-anchor="end">
		<text><tspan font-family="Arial" > 1850</tspan></text>
	</g>
</g>
<g fill="none" color="black" stroke="currentColor" stroke-width="1.00" stroke-linecap="butt" stroke-linejoin="miter">
	<path stroke='black'  d='M62.2,335.0 L71.2,335.0 M615.0,335.0 L606.0,335.0  '/>	<g transform="translate(53.9,338.9)" stroke="none" fill="black" font-family="Arial" font-size="12.00"  text-anchor="end">
		<text><tspan font-family="Arial" > 1900</tspan></text>
	</g>
</g>
<g fill="none" color="black" stroke="currentColor" stroke-width="1.00" stroke-linecap="butt" stroke-linejoin="miter">
	<path stroke='black'  d='M62.2,284.5 L71.2,284.5 M615.0,284.5 L606.0,284.5  '/>	<g transform="translate(53.9,288.4)" stroke="none" fill="black" font-family="Arial" font-size="12.00"  text-anchor="end">
		<text><tspan font-family="Arial" > 1950</tspan></text>
	</g>
</g>
<g fill="none" color="black" stroke="currentColor" stroke-width="1.00" stroke-linecap="butt" stroke-linejoin="miter">
	<path stroke='black'  d='M62.2,233.9 L71.2,233.9 M615.0,233.9 L606.0,233.9  '/>	<g transform="translate(53.9,237.8)" stroke="none" fill="black" font-family="Arial" font-size="12.00"  text-anchor="end">
		<text><tspan font-family="Arial" > 2000</tspan></text>
	</g>
</g>
<g fill="none" color="black" stroke="currentColor" stroke-width="1.00" stroke-linecap="butt" stroke-linejoin="miter">
	<path stroke='black'  d='M62.2,183.3 L71.2,183.3 M615.0,183.3 L606.0,183.3  '/>	<g transform="translate(53.9,187.2)" stroke="none" fill="black" font-family="Arial" font-size="12.00"  text-anchor="end">
		<text><tspan font-family="Arial" > 2050</tspan></text>
	</g>
</g>
<g fill="none" color="black" stroke="currentColor" stroke-width="1.00" stroke-linecap="butt" stroke-linejoin="miter">
	<path stroke='black'  d='M62.2,132.8 L71.2,132.8 M615.0,132.8 L606.0,132.8  '/>	<g transform="translate(53.9,136.7)" stroke="none" fill="black" font-family="Arial" font-size="12.00"  text-anchor="end">
		<text><tspan font-family="Arial" > 2100</tspan></text>
	</g>
</g>
<g fill="none" color="black" stroke="currentColor" stroke-width="1.00" stroke-linecap="butt" stroke-linejoin="miter">
	<path stroke='black'  d='M62.2,82.2 L71.2,82.2 M615.0,82.2 L606.0,82.2  '/>	<g transform="translate(53.9,86.1)" stroke="none" fill="black" font-family="Arial" font-size="12.00"  text-anchor="end">
		<text><tspan font-family="Arial" > 2150</tspan></text>
	</g>
</g>
<g fill="none" color="black" stroke="currentColor" stroke-width="1.00" stroke-linecap="butt" stroke-linejoin="miter">
	<path stroke='black'  d='M62.2,31.6 L71.2,31.6 M615.0,31.6 L606.0,31.6  '/>	<g transform="translate(53.9,35.5)" stroke="none" fill="black" font-family="Arial" font-size="12.00"  text-anchor="end">
		<text><tspan font-family="Arial" > 2200</tspan></text>
	</g>
</g>
<g fill="none" color="black" stroke="currentColor" stroke-width="1.00" stroke-linecap="butt" stroke-linejoin="miter">
	<path stroke='black'  d='M62.2,428.0 L62.2,419.0 M62.2,18.1 L62.2,27.1  '/>	<g transform="translate(62.2,449.9)" stroke="none" fill="black" font-family="Arial" font-size="12.00"  text-anchor="middle">
		<text><tspan font-family="Arial" > 0</tspan></text>
	</g>
</g>
<g fill="none" color="black" stroke="currentColor" stroke-width="1.00" stroke-linecap="butt" stroke-linejoin="miter">
	<path stroke='black'  d='M118.0,428.0 L118.0,419.0 M118.0,18.1 L118.0,27.1  '/>	<g transform="translate(118.0,449.9)" stroke="none" fill="black" font-family="Arial" font-size="12.00"  text-anchor="middle">
		<text><tspan font-family="Arial" > 10</tspan></text>
	</g>
</g>
<g fill="none" color="black" stroke="currentColor" stroke-width="1.00" stroke-linecap="butt" stroke-linejoin="miter">
	<path stroke='black'  d='M173.9,428.0 L173.9,419.0 M173.9,18.1 L173.9,27.1  '/>	<g transform="translate(173.9,449.9)" stroke="none" fill="black" font-family="Arial" font-size="12.00"  text-anchor="middle">
		<text><tspan font-family="Arial" > 20</tspan></text>
	</g>
</g>
<g fill="none" color="black" stroke="currentColor" stroke-width="1.00" stroke-linecap="butt" stroke-linejoin="miter">
	<path stroke='black'  d='M229.7,428.0 L229.7,419.0 M229.7,18.1 L229.7,27.1  '/>	<g transform="translate(229.7,449.9)" stroke="none" fill="black" font-family="Arial" font-size="12.00"  text-anchor="middle">
		<text><tspan font-family="Arial" > 30</tspan></text>
	</g>
</g>
<g fill="none" color="black" stroke="currentColor" stroke-width="1.00" stroke-linecap="butt" stroke-linejoin="miter">
	<path stroke='black'  d='M285.6,428.0 L285.6,419.0 M285.6,18.1 L285.6,27.1  '/>	<g transform="translate(285.6,449.9)" stroke="none" fill="black" font-family="Arial" font-size="12.00"  text-anchor="middle">
		<text><tspan font-family="Arial" > 40</tspan></text>
	</g>
</g>
<g fill="none" color="black" stroke="currentColor" stroke-width="1.00" stroke-linecap="butt" stroke-linejoin="miter">
	<path stroke='black'  d='M341.4,428.0 L341.4,419.0 M341.4,18.1 L341.4,27.1  '/>	<g transform="translate(341.4,449.9)" stroke="none" fill="black" font-family="Arial" font-size="12.00"  text-anchor="middle">
		<text><tspan font-family="Arial" > 50</tspan></text>
	</g>
</g>
<g fill="none" color="black" stroke="currentColor" stroke-width="1.00" stroke-linecap="butt" stroke-linejoin="miter">
	<path stroke='black'  d='M397.2,428.0 L397.2,419.0 M397.2,18.1 L397.2,27.1  '/>	<g transform="translate(397.2,449.9)" stroke="none" fill="black" font-family="Arial" font-size="12.00"  text-anchor="middle">
		<text><tspan font-family="Arial" > 60</tspan></text>
	</g>
</g>
<g fill="none" color="black" stroke="currentColor" stroke-width="1.00" stroke-linecap="butt" stroke-linejoin="miter">
	<path stroke='black'  d='M453.1,428.0 L453.1,419.0 M453.1,18.1 L453.1,27.1  '/>	<g transform="translate(453.1,449.9)" stroke="none" fill="black" font-family="Arial" font-size="12.00"  text-anchor="middle">
		<text><tspan font-family="Arial" > 70</tspan></text>
	</g>
</g>
<g fill="none" color="black" stroke="currentColor" stroke-width="1.00" stroke-linecap="butt" stroke-linejoin="miter">
	<path stroke='black'  d='M508.9,428.0 L508.9,419.0 M508.9,18.1 L508.9,27.1  '/>	<g transform="translate(508.9,449.9)" stroke="none" fill="black" font-family="Arial" font-size="12.00"  text-anchor="middle">
		<text><tspan font-family="Arial" > 80</tspan></text>
	</g>
</g>
<g fill="none" color="black" stroke="currentColor" stroke-width="1.00" stroke-linecap="butt" stroke-linejoin="miter">
	<path stroke='black'  d='M564.7,428.0 L564.7,419.0 M564.7,18.1 L564.7,27.1  '/>	<g transform="translate(564.7,449.9)" stroke="none" fill="black" font-family="Arial" font-size="12.00"  text-anchor="middle">
		<text><tspan font-family="Arial" > 90</tspan></text>
	</g>
</g>
<g fill="none" color="black" stroke="currentColor" stroke-width="1.00" stroke-linecap="butt" stroke-linejoin="miter">
</g>
<g fill="none" color="black" stroke="currentColor" stroke-width="1.00" stroke-linecap="butt" stroke-linejoin="miter">
	<path stroke='black'  d='M62.2,18.1 L62.2,428.0 L615.0,428.0 L615.0,18.1 L62.2,18.1 Z  '/></g>
<g fill="none" color="black" stroke="currentColor" stroke-width="1.00" stroke-linecap="butt" stroke-linejoin="miter">
</g>
	<g id="gnuplot_plot_1" ><title>pages+cached+nointeractive</title>
<g fill="none" color="black" stroke="currentColor" stroke-width="1.00" stroke-linecap="butt" stroke-linejoin="miter">
	<g transform="translate(279.8,467.9)" stroke="none" fill="black" font-family="Arial" font-size="12.00"  text-anchor="end">
		<text><tspan font-family="Arial" >pages+cached+nointeractive</tspan></text>
	</g>
</g>
<g fill="none" color="black" stroke="currentColor" stroke-width="1.00" stroke-linecap="butt" stroke-linejoin="miter">
	<path stroke='rgb(148,   0, 211)'  d='M288.1,464.0 L330.3,464.0 M62.2,259.6 L67.8,30.9 L73.4,262.5 L79.0,261.4 L84.5,260.5 L90.1,260.7
		L95.7,257.0 L101.3,32.2 L106.9,28.0 L112.5,103.7 L118.0,29.2 L123.6,262.2 L129.2,260.9 L134.8,259.9
		L140.4,262.2 L146.0,259.8 L151.5,264.1 L157.1,26.3 L162.7,28.9 L168.3,261.3 L173.9,29.0 L179.5,260.7
		L185.0,261.1 L190.6,260.4 L196.2,262.8 L201.8,259.2 L207.4,30.6 L213.0,28.1 L218.5,261.2 L224.1,28.7
		L229.7,101.5 L235.3,106.9 L240.9,106.2 L246.5,32.2 L252.1,29.2 L257.6,105.1 L263.2,260.7 L268.8,260.9
		L274.4,105.6 L280.0,30.1 L285.6,260.9 L291.1,27.1 L296.7,30.2 L302.3,259.3 L307.9,261.2 L313.5,261.9
		L319.1,105.1 L324.6,29.2 L330.2,262.3 L335.8,28.4 L341.4,29.9 L347.0,261.4 L352.6,262.2 L358.1,104.9
		L363.7,105.3 L369.3,107.1 L374.9,28.2 L380.5,27.2 L386.1,34.3 L391.6,29.9 L397.2,26.0 L402.8,28.2
		L408.4,263.9 L414.0,28.2 L419.6,28.1 L425.1,30.0 L430.7,260.9 L436.3,30.7 L441.9,27.4 L447.5,261.6
		L453.1,32.1 L458.7,29.7 L464.2,105.4 L469.8,30.3 L475.4,27.8 L481.0,30.3 L486.6,28.6 L492.2,27.1
		L497.7,28.5 L503.3,28.8 L508.9,265.3 L514.5,28.5 L520.1,26.4 L525.7,263.3 L531.2,267.3 L536.8,261.7
		L542.4,105.2 L548.0,27.0 L553.6,30.3 L559.2,107.5 L564.7,28.7 L570.3,26.0 L575.9,259.8 L581.5,30.9
		L587.1,31.4 L592.7,31.9 L598.2,30.9 L603.8,104.8 L609.4,262.4 L615.0,27.4  '/></g>
	</g>
	<g id="gnuplot_plot_2" ><title>pages+cached+noadtech</title>
<g fill="none" color="black" stroke="currentColor" stroke-width="1.00" stroke-linecap="butt" stroke-linejoin="miter">
	<g transform="translate(279.8,485.9)" stroke="none" fill="black" font-family="Arial" font-size="12.00"  text-anchor="end">
		<text><tspan font-family="Arial" >pages+cached+noadtech</tspan></text>
	</g>
</g>
<g fill="none" color="black" stroke="currentColor" stroke-width="1.00" stroke-linecap="butt" stroke-linejoin="miter">
	<path stroke='rgb(  0, 158, 115)'  d='M288.1,482.0 L330.3,482.0 M62.2,189.5 L67.8,414.5 L73.4,414.8 L79.0,418.6 L84.5,413.4 L90.1,178.4
		L95.7,187.7 L101.3,418.8 L106.9,416.8 L112.5,184.0 L118.0,414.9 L123.6,183.1 L129.2,412.4 L134.8,182.6
		L140.4,182.8 L146.0,180.3 L151.5,411.5 L157.1,184.3 L162.7,415.5 L168.3,178.3 L173.9,419.1 L179.5,259.8
		L185.0,181.4 L190.6,188.8 L196.2,414.8 L201.8,181.4 L207.4,257.3 L213.0,414.8 L218.5,417.3 L224.1,182.0
		L229.7,190.8 L235.3,419.3 L240.9,420.1 L246.5,184.2 L252.1,419.5 L257.6,184.5 L263.2,178.7 L268.8,418.4
		L274.4,185.6 L280.0,183.7 L285.6,185.8 L291.1,416.1 L296.7,184.3 L302.3,258.2 L307.9,183.0 L313.5,415.6
		L319.1,181.7 L324.6,414.5 L330.2,417.3 L335.8,184.6 L341.4,413.5 L347.0,182.5 L352.6,257.5 L358.1,415.8
		L363.7,417.8 L369.3,180.1 L374.9,415.0 L380.5,259.5 L386.1,260.3 L391.6,410.4 L397.2,417.3 L402.8,257.1
		L408.4,186.6 L414.0,414.6 L419.6,414.7 L425.1,178.3 L430.7,182.2 L436.3,419.4 L441.9,418.2 L447.5,260.6
		L453.1,189.7 L458.7,418.3 L464.2,184.3 L469.8,181.4 L475.4,415.9 L481.0,258.2 L486.6,181.5 L492.2,417.0
		L497.7,184.1 L503.3,183.8 L508.9,182.5 L514.5,183.8 L520.1,183.7 L525.7,187.3 L531.2,184.5 L536.8,257.9
		L542.4,415.7 L548.0,181.0 L553.6,182.6 L559.2,264.8 L564.7,181.7 L570.3,413.7 L575.9,184.1 L581.5,416.5
		L587.1,259.9 L592.7,409.9 L598.2,187.2 L603.8,415.2 L609.4,182.7 L615.0,181.6  '/></g>
	</g>
	<g id="gnuplot_plot_3" ><title>score p10=3572</title>
<g fill="none" color="black" stroke="currentColor" stroke-width="1.00" stroke-linecap="butt" stroke-linejoin="miter">
	<g transform="translate(554.4,467.9)" stroke="none" fill="black" font-family="Arial" font-size="12.00"  text-anchor="end">
		<text><tspan font-family="Arial" >score p10=3572</tspan></text>
	</g>
</g>
<g fill="none" color="black" stroke="currentColor" stroke-width="1.00" stroke-linecap="butt" stroke-linejoin="miter">
	<path stroke='rgb( 86, 180, 233)'  d='M562.7,464.0 L604.9,464.0  '/></g>
	</g>
	<g id="gnuplot_plot_4" ><title>score median=6500</title>
<g fill="none" color="black" stroke="currentColor" stroke-width="1.00" stroke-linecap="butt" stroke-linejoin="miter">
	<g transform="translate(554.4,485.9)" stroke="none" fill="black" font-family="Arial" font-size="12.00"  text-anchor="end">
		<text><tspan font-family="Arial" >score median=6500</tspan></text>
	</g>
</g>
<g fill="none" color="black" stroke="currentColor" stroke-width="1.00" stroke-linecap="butt" stroke-linejoin="miter">
	<path stroke='rgb(230, 159,   0)'  d='M562.7,482.0 L604.9,482.0  '/></g>
	</g>
<g fill="none" color="#FFFFFF" stroke="rgb(230, 159,   0)" stroke-width="2.00" stroke-linecap="butt" stroke-linejoin="miter">
</g>
<g fill="none" color="black" stroke="currentColor" stroke-width="2.00" stroke-linecap="butt" stroke-linejoin="miter">
</g>
<g fill="none" color="black" stroke="black" stroke-width="1.00" stroke-linecap="butt" stroke-linejoin="miter">
</g>
<g fill="none" color="black" stroke="currentColor" stroke-width="1.00" stroke-linecap="butt" stroke-linejoin="miter">
	<path stroke='black'  d='M62.2,18.1 L62.2,428.0 L615.0,428.0 L615.0,18.1 L62.2,18.1 Z  '/></g>
<g fill="none" color="black" stroke="currentColor" stroke-width="1.00" stroke-linecap="butt" stroke-linejoin="miter">
</g>
</g>
</svg>
